/* XPM */
static char * Exit_xpm[] = {
"32 32 205 2",
"  	c #FFFFFF",
". 	c #E0F3E0",
"+ 	c #90DA90",
"@ 	c #2ACB2B",
"# 	c #1ECA1F",
"$ 	c #E1F3E1",
"% 	c #90DA91",
"& 	c #F9FDF9",
"* 	c #E9F6E9",
"= 	c #C5E9C5",
"- 	c #7ED67E",
"; 	c #22CB23",
"> 	c #1CCA1D",
", 	c #26CB27",
"' 	c #8FDA8F",
") 	c #B6E5B6",
"! 	c #7FD67F",
"~ 	c #51CF51",
"{ 	c #27CB28",
"] 	c #FCFEFC",
"^ 	c #F7FCF7",
"/ 	c #EFF9EF",
"( 	c #E5F5E5",
"_ 	c #DFF2DF",
": 	c #C4E9C4",
"< 	c #25CB26",
"[ 	c #39CC3A",
"} 	c #5ED05F",
"| 	c #A3DFA4",
"1 	c #E4F4E4",
"2 	c #E6F5E6",
"3 	c #CCEBCC",
"4 	c #A8E0A8",
"5 	c #24CB25",
"6 	c #5DD05E",
"7 	c #92DB93",
"8 	c #C3E9C3",
"9 	c #EDF8ED",
"0 	c #F0F9F0",
"a 	c #CCECCC",
"b 	c #9FDE9F",
"c 	c #63D163",
"d 	c #1ACA1B",
"e 	c #17CA18",
"f 	c #52CF53",
"g 	c #56CF56",
"h 	c #26CB28",
"i 	c #43CD43",
"j 	c #69D269",
"k 	c #94DB95",
"l 	c #BFE7C0",
"m 	c #DEF2DF",
"n 	c #F5FBF5",
"o 	c #66D266",
"p 	c #3DCC3D",
"q 	c #11CA13",
"r 	c #80D780",
"s 	c #C7EAC7",
"t 	c #F8FCF8",
"u 	c #C4E9C5",
"v 	c #54CF55",
"w 	c #7DD67D",
"x 	c #8EDA8E",
"y 	c #B8E5B8",
"z 	c #92DB92",
"A 	c #45CD46",
"B 	c #87D887",
"C 	c #A7E0A7",
"D 	c #7CD67C",
"E 	c #4FCE4F",
"F 	c #7DD67E",
"G 	c #EAF7EA",
"H 	c #91DA91",
"I 	c #9DDD9D",
"J 	c #A6E0A6",
"K 	c #8CD98C",
"L 	c #A9E1A9",
"M 	c #09CA0C",
"N 	c #FDFEFD",
"O 	c #D6EFD6",
"P 	c #8AD98A",
"Q 	c #C0E8C0",
"R 	c #9ADC9A",
"S 	c #99DC99",
"T 	c #CAEBCA",
"U 	c #10CA13",
"V 	c #8BD98B",
"W 	c #C9EAC9",
"X 	c #AAE1AA",
"Y 	c #E8F6E8",
"Z 	c #B6E4B6",
"` 	c #DFF3DF",
" .	c #E7F5E7",
"..	c #C0E7C0",
"+.	c #7AD57A",
"@.	c #42CD42",
"#.	c #FEFEFE",
"$.	c #88D888",
"%.	c #4DCE4E",
"&.	c #7BD67C",
"*.	c #B7E5B7",
"=.	c #14CA16",
"-.	c #1FCA20",
";.	c #7ED67F",
">.	c #25CB27",
",.	c #F9FCF9",
"'.	c #7BD67B",
").	c #C5EAC5",
"!.	c #82D782",
"~.	c #56CF57",
"{.	c #73D473",
"].	c #70D370",
"^.	c #4CCE4D",
"/.	c #88D889",
"(.	c #83D783",
"_.	c #68D268",
":.	c #85D885",
"<.	c #B2E3B2",
"[.	c #75D476",
"}.	c #C1E8C1",
"|.	c #F3FAF3",
"1.	c #EEF8EE",
"2.	c #59D059",
"3.	c #8CD98D",
"4.	c #BBE6BB",
"5.	c #DEF2DE",
"6.	c #D7EFD7",
"7.	c #A1DFA1",
"8.	c #A5DFA5",
"9.	c #E8F6E9",
"0.	c #DCF1DC",
"a.	c #CBEBCB",
"b.	c #C8EAC8",
"c.	c #EBF7EB",
"d.	c #F6FBF6",
"e.	c #A5E0A6",
"f.	c #87D888",
"g.	c #7BD57B",
"h.	c #98DC98",
"i.	c #ECF7EC",
"j.	c #D5EFD5",
"k.	c #A5E0A5",
"l.	c #C2E8C2",
"m.	c #B5E4B5",
"n.	c #84D884",
"o.	c #6FD36F",
"p.	c #70D470",
"q.	c #C1E8C2",
"r.	c #E3F4E3",
"s.	c #9EDE9E",
"t.	c #73D474",
"u.	c #95DC96",
"v.	c #BAE6BA",
"w.	c #DAF1DA",
"x.	c #FAFDFA",
"y.	c #ABE1AB",
"z.	c #ACE2AC",
"A.	c #CFEDCF",
"B.	c #B1E3B1",
"C.	c #6FD370",
"D.	c #A2DFA2",
"E.	c #C9EBC9",
"F.	c #DDF2DD",
"G.	c #B3E4B3",
"H.	c #CEECCE",
"I.	c #19CA1A",
"J.	c #CDECCD",
"K.	c #A4DFA4",
"L.	c #74D474",
"M.	c #4CCE4C",
"N.	c #44CD45",
"O.	c #F4FBF4",
"P.	c #86D887",
"Q.	c #91DB92",
"R.	c #55CF55",
"S.	c #52CF52",
"T.	c #6CD36D",
"U.	c #50CE50",
"V.	c #37CC38",
"W.	c #2CCB2D",
"X.	c #44CD44",
"Y.	c #D0EDD0",
"Z.	c #89D989",
"`.	c #75D475",
" +	c #76D577",
".+	c #7FD680",
"++	c #81D781",
"@+	c #64D164",
"#+	c #B3E3B3",
"$+	c #D4EFD5",
"%+	c #B4E4B4",
"&+	c #28CB29",
"*+	c #1FCA21",
"=+	c #46CD46",
"-+	c #66D267",
";+	c #F7FBF7",
">+	c #D9F0D9",
",+	c #D2EDD2",
"'+	c #BCE6BC",
")+	c #C3E8C3",
"!+	c #F4FAF4",
"~+	c #BDE6BD",
"{+	c #94DB94",
"]+	c #8AD98B",
"^+	c #23CB24",
"                              . + @ # # @ + .                   ",
"                              $ % @ # # @ + .                   ",
"                              . + @ # # @ + .                   ",
"                          & * = - @ ; > , ' .                   ",
"                          * ) ! ~ @ { # @ + .                   ",
"          ] ^ / ( . . $ _ : - @ ; { < [ } | 1                   ",
"          ^ 2 3 4 + ' % + - ~ ; 5 , @ 6 7 8 9                   ",
"          0 a b c d e f - ! g h ; i j k l m n                   ",
"          ( 4 o p q > - 8 : r < ; o b s 1 n ]                   ",
"      t * u - v w x + y * . z A c B C 3 0                       ",
"      * ) D E F : . $ G t . H j I J K L 2                       ",
"      . x M M x .     N ^ O P - Q s R S T * &                   ",
"      . x U d + $     t 2 Q D V O 2 W X S ) Y                   ",
"      * ) x x Z *     0 a I o % ` ^  ...+.D 8 * & t * ` _ Y ^   ",
"      ^ * . . * ^     ( 4 c @.+ . #.t O $.%.&.*.* * *.x x ) *   ",
"                  & * : D =.-.+ .     * Z D %.! : : ! %.D ) *   ",
"                  * Z ;.E e >.+ .     ,.* : D f D D f '.8 Y t   ",
"              & * ).!.~.{.].^./.O ^ N     * ) w %.%.w ) *       ",
"              * ) (._.:.) <.[.D }.2 ^     & * 8 D D 8 * &       ",
"|.1.( * t & * : D 2.3.4.5.6.7.B 8.3 0         Y *.*.9.          ",
"0.a.4 *.Y * *.D %.;.b.c.d.c.T e.f.4 (         t * * t           ",
"0...g.! 8 : ;.%.D ) *     ^ 2 s h.S T * &     ^ Y 1 i.n ]       ",
"|.j.B f &.D f D : * &     N ^ 2 s X S ) Y     9.*.k.l.m n       ",
"  * m.n.o.p.$.*.G             ,. .q.w - : G & r.s.t.u.v.w.1.x.  ",
"  ^ 2 a y.z.A.* ,.            #.^ O $.%.&.*.*  .B.w C.r D.E.1.  ",
"  ] n F.G.z.H._ ` _ ` ` ` ` ` . ` : w I.I.;.: J.K.L.M.N.j K.F.O.",
"  t * E.z {.P.Q.H + + + + + + H % r R.5 # S.- :.T.U.V.W.X.P.: 0.",
"  t * Y.L + ' + + Z.D L.t.L.L.L.L.L.L.L.`.`. +.+K ++g ; # @+I #+",
"  N ^ / ( ` _ ` _ $+..#+#+#+#+#+#+%+m.m.m.%+%+}.j.= .+&+*+=+-+L.",
"                  ;+2 0.0.0.0.0.0.0.0.>+,+s '+)+O u r v w + + + ",
"                  N ^ O.!+O.O.O.O.n O.i.>+~+{+.+]+! g ! u . . ` ",
"                                      O.0.m.L.@ ^+# @ + .       "};

