/* XPM */
static char * item_xpm[] = {
"32 32 38 1",
" 	c #FFFFFF",
".	c #F8F8F8",
"+	c #E8E8E8",
"@	c #DFDFDF",
"#	c #F7F7F7",
"$	c #B3B3B3",
"%	c #8A8A8A",
"&	c #E0E0E0",
"*	c #C3C3C3",
"=	c #797979",
"-	c #000000",
";	c #8C8C8C",
">	c #454545",
",	c #F9F9F9",
"'	c #414141",
")	c #474747",
"!	c #4B4B4B",
"~	c #7C7C7C",
"{	c #B5B5B5",
"]	c #8D8D8D",
"^	c #EAEAEA",
"/	c #4A4A4A",
"(	c #FDFDFD",
"_	c #F6F6F6",
":	c #D5D5D5",
"<	c #858585",
"[	c #E5E5E5",
"}	c #C0C0C0",
"|	c #767676",
"1	c #F4F4F4",
"2	c #DBDBDB",
"3	c #B2B2B2",
"4	c #6B6B6B",
"5	c #6D6D6D",
"6	c #CBCBCB",
"7	c #A5A5A5",
"8	c #FCFCFC",
"9	c #EEEEEE",
"                                ",
"                     .+@@+#     ",
"                     +$%%$+     ",
"                 .+&@*=--;@     ",
"                 +$;%=>--%@     ",
"               ,+*=------;@     ",
"               +$='------;@     ",
"             .+*=--)==!--;@     ",
"             +$='--~**~--;@     ",
"   #+@@+#    @%--'={+@]--;@     ",
"   +$%%$+    @%--=*^,&]--;@     ",
"   &;--;&    +$%%$+  @;--;@     ",
"   @%--%@    #+@@+.  @;--;@     ",
"@&@*=--=*@&+#        @;--;@     ",
";;;=/--/=%;$+        @;--;@     ",
"-----------%@        @;--;@     ",
"-----------%@        @;--;@     ",
";;;=/--/=%;$+        &;--;@     ",
"@&@*=--=*@&+#        @;--;@     ",
"   @%--%@          (_:<--;@     ",
"   &;--;&          #[}|--;@     ",
"   +$%%$+          1234--%@     ",
"   #+@@+#          12$5--;@     ",
"                   #[67%%$+     ",
"                   8_9[@@+#     ",
"                                ",
"                                ",
"                                ",
"                                ",
"                                ",
"                                ",
"                                "};

