Miaou/* XPM */
static char * player_xpm[] = {
"32 32 206 2",
"  	c None",
". 	c #FFFFFF",
"+ 	c #E5E5E5",
"@ 	c #DBDBDB",
"# 	c #E8E8E8",
"$ 	c #D5D5D5",
"% 	c #BFBFBF",
"& 	c #B1B1B3",
"* 	c #BEBEC0",
"= 	c #D3D4D5",
"- 	c #DEDEDF",
"; 	c #DEDEE0",
"> 	c #DFDFDF",
", 	c #B3B3B3",
"' 	c #858585",
") 	c #747474",
"! 	c #6D6D6D",
"~ 	c #767676",
"{ 	c #8C8C8C",
"] 	c #8A8A8A",
"^ 	c #C2C2C3",
"/ 	c #767679",
"( 	c #343001",
"_ 	c #5E5600",
": 	c #797007",
"< 	c #867C08",
"[ 	c #8C8209",
"} 	c #766E00",
"| 	c #454002",
"1 	c #777779",
"2 	c #E0E0E0",
"3 	c #414141",
"4 	c #5F5700",
"5 	c #9F9300",
"6 	c #C2B500",
"7 	c #D6C702",
"8 	c #DECF01",
"9 	c #DECF00",
"0 	c #DFD000",
"a 	c #C1B400",
"b 	c #766D00",
"c 	c #454545",
"d 	c #767779",
"e 	c #E4E4E5",
"f 	c #C8C7C3",
"g 	c #959279",
"h 	c #756C06",
"i 	c #837900",
"j 	c #A79B0D",
"k 	c #CFC113",
"l 	c #E9D917",
"m 	c #F8E819",
"n 	c #FFEE1A",
"o 	c #FFEF1A",
"p 	c #E8D917",
"q 	c #B3A70F",
"r 	c #797006",
"s 	c #413C02",
"t 	c #000000",
"u 	c #C3C3C3",
"v 	c #CACACB",
"w 	c #A5A5A5",
"x 	c #969279",
"y 	c #A89E45",
"z 	c #BEB100",
"A 	c #D5C605",
"B 	c #E5D616",
"C 	c #F0E018",
"D 	c #FEED1A",
"E 	c #F9E819",
"F 	c #C3B60A",
"G 	c #797979",
"H 	c #CBCBCB",
"I 	c #A9A79C",
"J 	c #96905F",
"K 	c #A59A0D",
"L 	c #CABC05",
"M 	c #E6D616",
"N 	c #F7E619",
"O 	c #FFF01A",
"P 	c #B4A80F",
"Q 	c #8C8309",
"R 	c #8A8009",
"S 	c #776E00",
"T 	c #474200",
"U 	c #777778",
"V 	c #C2C3C3",
"W 	c #958F5F",
"X 	c #C7BB30",
"Y 	c #E4D502",
"Z 	c #EFDF0F",
"` 	c #FDEC1A",
" .	c #B5A80F",
"..	c #E7D816",
"+.	c #E0D116",
"@.	c #DFD116",
"#.	c #C2B602",
"$.	c #776F00",
"%.	c #DED001",
"&.	c #FFEF1B",
"*.	c #DDCF15",
"=.	c #E5D620",
"-.	c #A59B27",
";.	c #5C5614",
">.	c #332F13",
",.	c #434343",
"'.	c #8B8100",
").	c #E0D10B",
"!.	c #FFF019",
"~.	c #FFF01B",
"{.	c #F0E02D",
"].	c #CBBE40",
"^.	c #999035",
"/.	c #5B5519",
"(.	c #DFD015",
"_.	c #B4A70F",
":.	c #FFEE19",
"<.	c #F4E42D",
"[.	c #DCCE42",
"}.	c #B2A739",
"|.	c #6E6725",
"1.	c #F4E423",
"2.	c #DCCE2F",
"3.	c #B2A721",
"4.	c #6E6718",
"5.	c #FCEB1A",
"6.	c #F7E719",
"7.	c #EFDF1A",
"8.	c #CBBD1A",
"9.	c #9A9000",
"0.	c #5E5809",
"a.	c #F6E619",
"b.	c #E5D617",
"c.	c #A59A0F",
"d.	c #5C5500",
"e.	c #332F02",
"f.	c #EEDE17",
"g.	c #C9BC12",
"h.	c #BEB111",
"i.	c #D4C514",
"j.	c #DED015",
"k.	c #DECF15",
"l.	c #E4D516",
"m.	c #A5990D",
"n.	c #746C06",
"o.	c #827908",
"p.	c #B5A90F",
"q.	c #8C8208",
"r.	c #DFD00D",
"s.	c #FFEF19",
"t.	c #766E06",
"u.	c #776E06",
"v.	c #C2B411",
"w.	c #E0D115",
"x.	c #C2B511",
"y.	c #776F06",
"z.	c #B6A90F",
"A.	c #E9DA17",
"B.	c #8E8409",
"C.	c #F8E719",
"D.	c #766D06",
"E.	c #756D06",
"F.	c #C1B411",
"G.	c #F8E81A",
"H.	c #8C831E",
"I.	c #DFD12B",
"J.	c #FFF037",
"K.	c #FFF127",
"L.	c #857C08",
"M.	c #5E5704",
"N.	c #322E01",
"O.	c #F9E91A",
"P.	c #DFDFE0",
"Q.	c #8C8330",
"R.	c #DED14B",
"S.	c #FFF052",
"T.	c #FFF036",
"U.	c #FFEF18",
"V.	c #D5C714",
"W.	c #9A8F0B",
"X.	c #5B5404",
"Y.	c #C3B611",
"Z.	c #766F25",
"`.	c #C0B544",
" +	c #DED14C",
".+	c #E0D232",
"++	c #DFD013",
"@+	c #E7D817",
"#+	c #CCBE13",
"$+	c #8D8309",
"%+	c #4A451A",
"&+	c #8C831D",
"*+	c #EFDF18",
"=+	c #E5D516",
"-+	c #C2B400",
";+	c #DFD001",
">+	c #DECF04",
",+	c #DFD00A",
"'+	c #DFD012",
")+	c #6E6E6E",
"!+	c #5E5E5E",
"~+	c #333333",
"{+	c #B2B2B4",
"]+	c #9A9A9C",
"^+	c #5C5D60",
"/+	c #DCDCDC",
". . . . . . . . . . . . . . . . . . . . . . . . . . . . . . . . ",
". . . . . . . . . . . . . . . . . . . . . . . . . . . . . . . . ",
". . . . . . . . . . . . + @ @ + . . . . . . . . . . . . . . . . ",
". . . . . . . . . . # $ % & & * = - ; - > # . . . . . . . . . . ",
". . . . . . . . . # , ' ) ! ! ~ ' { { ] { , # . . . . . . . . . ",
". . . . . . . . # ^ / ( _ : < [ [ [ [ } | 1 ^ > 2 # . . . . . . ",
". . . . . . . # , 1 3 4 5 6 7 8 9 0 9 a b c d ] { , # . . . . . ",
". . . . . . e f g h i j k l m n n o n p q r s t t d u # . . . . ",
". . . . + v w x y z A B C m D o o o o E p F } t t 3 G , # . . . ",
". . . . H I J K L M N N p p N n n n o O o l P Q R S T U V # . . ",
". . . e w W X Y Z m ` p  .P ..n o n n o o m p +.@.#.$.3 d , # . ",
". . # ^ G [ %.&.o o n *.R R *.n o N ..*.*...N o &.=.-.;.>.{ > . ",
". # , / ,.'.).o O o n *.R R *.o o p q R R P l !.~.{.].^./.] - . ",
". > { t t [ (.n o o n .._.q ..o o p q R R q p :.o <.[.}.|.{ - . ",
". > ] t t [ (.n o n n N p p N n n N ..*.*...N n n 1.2.3.4.{ - . ",
". > { t t [ (.n o 5.N 6.` o n n n n n n o o o o n 7.8.9.0.{ > . ",
". > { t t [ (.n o a.B M N o o n n n o o o o n o n b.c.d.e.{ > . ",
". > ] t t [ (.o o f.g.h.i.p E o o o o m p j.k.p N (.[ t t { > . ",
". > { t t [ (.o o l.m.n.o.q p n o o n p q R R p.p (.Q t t { > . ",
". # , d c q.r.s.o p q t.s u.v.(.w.w.(.x.y.s t.z.A.+.B.t t ] > . ",
". . # ^ G [ %.&.o C...v.D.| t.[ [ [ [ t.| E.F.p G.@.Q t t { > . ",
". . . - { H.I.J.K.O o A.P L.n.M.N.t t s r P A.O.A.#.} 3 d , # . ",
". . . P.{ Q.R.S.T.o U.E p V.h.W.X.t t t.Y.A.E A.P $.| G u # . . ",
". . . - ] Z.`. +.+(.++l m m @+#+j [ $+z.A.O.A.6 } 3 d , # . . . ",
". . . > { %+Z.Q.&+R q.P l ` m *+=+(.(.A.G.A.P } s d ^ # . . . . ",
". . . # , { ] G c t t b -+9 ;+>+>+,+'++.@.#.$.3 d , # . . . . . ",
". . . . # 2 - ^ d t t | r [ $+$+B.B.B.B.Q } | d ^ # . . . . . . ",
". . . . . . . # , { ] { { ' ~ )+! !+~+t t 3 G , # . . . . . . . ",
". . . . . . . . # > > P.- = * {+& ]+^+t t d u # . . . . . . . . ",
". . . . . . . . . . . . . . + /+@ H w ] ] , # . . . . . . . . . ",
". . . . . . . . . . . . . . . . .   + > > # . . . . . . . . . . ",
". . . . . . . . . . . . . . . . . . . . . . . . . . . . . . . . "};

